X:1
T:Title
%%score { 1 | 2 }
L:1/8
Q:1/4=106
M:4/4
K:F
V:1 treble nm="Grand Piano"
V:2 bass 
V:1
 A4 B2 A2 | A3 [B,EG] [A,F]4 | [B,EG]4 [A,F]2 [CEG]2 | [CFA]2 [CEB]2 [CFc]4 | [FAc]4 [CFA]2 [CF]2 | %5
w: W.~H.~Doane * *|||||
 [CEG]2 [CFA]2 [CGB]4 | [CFA]4 [CG]2 [=B,FG]2 | [CEG]6 z2 | A4 F2 A2 | c6 z2 | %10
w: |||||
 [FAc]4 [CFA]2 [CF]2 | [CEG]6 z2 | [CFA]4 [_EFA]2 z2 | [DFB]4 [^CFB]2 z2 | [CFA]4 [CFG]2 [B,EG]2 | %15
w: |||||
 [A,F]6 z2 |] %16
w: |
V:2
 [F,CF]4 [F,DF]2 [F,CF]2 | [F,CF]3 C, F,4 | C,4 C,2 C,2 | F,2 G,2 A,4 | F,4 F,2 A,,2 | %5
 C,2 C,2 C,4 | F,4 E,2 D,2 | C,6 z2 | [F,CF]4 [F,A,C]2 [F,CF]2 | [F,A,F]6 z2 | F,4 F,2 A,,2 | %11
 C,6 z2 | F,4 F,2 z2 | B,,4 B,,2 z2 | C,4 C,2 C,2 | F,6 z2 |] %16

